X: 43432
T: Y Lancers
R: jig
M: 6/8
K: Dmajor
|:D|D2 d d2 B|AFA D2 E|F2 D FAF|F2 E E2 F|
D2 d d2 B|AFA D2 E|F2 d E2 c|d3 D2:|
|:d|f2 d faf|e2 c A2 e|d2 f B2 d|c2 e A2 e|
f2 d faf|e2 c A2 c|Bcd EF^G|1 A3 A2:|2 ABA GFE||

